X:1
T:Wondrous Love
T:Wondrous Love
T:Southern Harmony, 1835
T:Public Domain Courtesy of the Cyber Hymnal™
C:Southern Harmony, 1835
Z:Public Domain
Z:Courtesy of the Cyber Hymnal™
%%score ( 1 2 ) ( 3 4 )
L:1/8
Q:1/4=115
M:2/2
K:C
V:1 treble 
V:2 treble 
V:3 bass 
V:4 bass 
V:1
 D4 | D2 C2 [CE]2 [B,G]2 | A4 [CG]2 [B,E]2 | D4 D2 C2 | [CE]4 [CA]4 | [Ec]2 [DB]2 [EA]2 [DG]2 | %6
 A4 [CG]2 [B,E]2 | [A,D]8 [DG]4 | [CA]2 [DG]2 [EA]2 [Ec]2 | [Dd]4 d4 | [Ec]2 [CA]2 AG E2 | D4 D4 | %12
 D2 C2 [CE]2 [B,G]2 | [A,A]4 [B,G]2 [CE]2 | D4 D2 C2 | [CE]4 [CA]4 x2 | [Dc]2 [EB]2 [EA]2 [DG]2 | %17
 [CA]4 [DG]2 E2 | D4 |] %19
V:2
 D4 | x8 | (A,2 B,2) x4 | A,8 | x8 | x8 | (E2 D2) x4 | x12 | x8 | x4 D2 F2 | x4 C4 | x8 | x8 | x8 | %14
 x8 | x10 | x8 | x8 | D4 |] %19
V:3
 [D,F,]4 | F,2 E,4 [G,,D,]2 | (C,2 D,2) E,2 G,2 | [D,F,]4 [D,F,]4 | [C,G,]4 A,4 | %5
 [F,,A,]2 [G,,B,]2 [A,,C]2 [B,,B,]2 | (C2 B,2) [A,,A,]2 [C,G,]2 | [D,F,]8 [B,,G,]4 | %8
 [A,,E,]2 [B,,G,]2 [C,A,]2 A,2 | [F,A,]2 [G,B,]2 A,4 | A,4 E,2 G,2 | %11
 ([D,F,]2 [F,A,]2) ([E,G,]2 [D,F,]2) | F,2 E,4 [G,,D,]2 | [F,,C,]4 [G,,D,]2 [A,,E,]2 | %14
 [D,F,]4 ([F,A,][E,G,]) [D,F,]2 | A,4 z2 x4 | [F,A,]2 [G,B,]2 [A,C]2 [E,B,]2 | F,4 E,2 [C,B,]2 | %18
 [D,A,]4 |] %19
V:4
 x4 | A,,6 x2 | F,,4 C,4 | x8 | x4 (A,,2 G,,2) | x8 | A,,4 x4 | x12 | x6 G,2 | x4 F,2 D,2 | %10
 x4 A,,4 | x8 | A,,6 x2 | x8 | x8 | (A,,2 E,2) A,4 G,2 | x8 | x8 | x4 |] %19

